svg/k6.svg

<?xml version="1.0" encoding="UTF-8"?>
<svg xmlns="http://www.w3.org/2000/svg" xmlns:xlink="http://www.w3.org/1999/xlink" width="32" height="32" viewBox="0 0 32 32">
<path fill-rule="nonzero" fill="rgb(49.019608%, 39.215687%, 100%)" fill-opacity="1" d="M 31.578125 30.667969 L 0.667969 30.667969 L 10.957031 8.714844 L 17.15625 13.273438 L 25.242188 0.667969 Z M 20.246094 25.925781 L 20.3125 25.925781 C 21.078125 25.925781 21.8125 25.632812 22.363281 25.101562 C 22.933594 24.582031 23.253906 23.84375 23.246094 23.070312 C 23.269531 22.328125 22.957031 21.613281 22.394531 21.125 C 21.925781 20.65625 21.292969 20.382812 20.628906 20.363281 L 20.578125 20.363281 C 20.492188 20.363281 20.40625 20.375 20.324219 20.398438 L 21.957031 17.976562 L 20.65625 17.066406 L 20.039062 17.976562 L 18.46875 20.375 C 18.246094 20.699219 18.03125 21.03125 17.832031 21.367188 C 17.6875 21.625 17.5625 21.894531 17.457031 22.171875 C 17.339844 22.464844 17.28125 22.78125 17.28125 23.097656 C 17.273438 23.859375 17.585938 24.589844 18.148438 25.105469 C 18.691406 25.636719 19.425781 25.929688 20.183594 25.929688 Z M 13.335938 23.316406 L 15.136719 25.863281 L 17.0625 25.863281 L 14.941406 22.90625 L 16.824219 20.292969 L 15.574219 19.429688 L 15.023438 20.15625 L 13.332031 22.542969 L 13.332031 17.746094 L 11.644531 16.371094 L 11.644531 25.863281 L 13.332031 25.863281 L 13.332031 23.3125 Z M 20.246094 24.335938 C 19.578125 24.308594 19.054688 23.761719 19.054688 23.09375 C 19.054688 22.425781 19.578125 21.878906 20.246094 21.851562 L 20.257812 21.851562 C 20.589844 21.855469 20.90625 21.988281 21.132812 22.226562 C 21.371094 22.449219 21.507812 22.757812 21.507812 23.085938 C 21.5 23.777344 20.9375 24.332031 20.246094 24.332031 Z M 20.246094 24.335938 "/>
</svg>

<svg role="img" viewBox="0 0 32 32" xmlns="http://www.w3.org/2000/svg"><path d="M31.578 30.668H.668L10.957 8.715l6.2 4.558L25.241.668Zm-11.332-4.742h.067c.765 0 1.5-.293 2.05-.824.57-.52.89-1.258.883-2.032a2.47 2.47 0 0 0-.851-1.945 2.6 2.6 0 0 0-1.766-.762h-.05a1 1 0 0 0-.255.035l1.633-2.421-1.3-.91-.618.91-1.57 2.398q-.336.487-.637.992-.218.388-.375.805a2.5 2.5 0 0 0-.176.926 2.68 2.68 0 0 0 .867 2.007 2.9 2.9 0 0 0 2.036.825Zm-6.91-2.61 1.8 2.547h1.927l-2.122-2.957 1.883-2.613-1.25-.863-.55.726-1.692 2.387v-4.797l-1.687-1.375v9.492h1.687v-2.55Zm6.91 1.02a1.24 1.24 0 0 1-1.191-1.242 1.24 1.24 0 0 1 1.191-1.242h.012c.332.003.648.136.875.375.238.222.375.53.375.859a1.26 1.26 0 0 1-1.262 1.246Zm0 0" fill="rgb(49.019608%, 39.215687%, 100%)"/></svg>
